assets/open3d/original.svg

<svg viewBox="0 0 24 24" xmlns="http://www.w3.org/2000/svg"><path d="m5.998 1.606-5.998 10.394 5.998 10.394h2.094l1.954-3.383h-2.094l-3.892-6.743h8.149l3.56 6.157 3.714-6.425-3.715-6.444-3.56 6.18h-8.153l3.893-6.747h2.098l-1.958-3.383zm2.71 0 1.954 3.383h5.386l4.048 7.011-4.044 7.011h-5.394l-1.954 3.383h9.294l.488-.847 5.514-9.547-5.998-10.394z"/></svg>

<svg xmlns="http://www.w3.org/2000/svg" viewBox="0 0 24 24"><title>Open3D</title><path d="M5.998 1.606 0 12l5.998 10.394h2.094l1.954-3.383H7.952L4.06 12.268h8.149l3.56 6.157L19.483 12l-3.715-6.444-3.56 6.18H4.055l3.893-6.747h2.098L8.088 1.606Zm2.71 0 1.954 3.383h5.386L20.096 12l-4.044 7.011h-5.394l-1.954 3.383h9.294l.488-.847L24 12 18.002 1.606Z"/></svg>
